src/icon/action/navigation-home/icon_navigation-home_m_color.svg

<svg xmlns="http://www.w3.org/2000/svg" width="24" height="24" viewBox="0 0 24 24"><g fill="none"><rect width="24" height="24"/><path fill="#F03226" d="M5,9.71741172 L5,20 C5,20.5522847 5.44771525,21 6,21 L18,21 C18.5522847,21 19,20.5522847 19,20 L19,9.71743431 L11.9999849,4.49523955 L5,9.71741172 Z M0.201195145,10.8022064 L11.9999849,2 L23.7987746,10.8022064 C24.0201099,10.9673283 24.0656799,11.2806139 23.9005579,11.5019493 C23.8061837,11.6284518 23.6576219,11.7029695 23.4997948,11.7029695 L21,11.7029695 L21,20 C21,21.6568542 19.6568542,23 18,23 L6,23 C4.34314575,23 3,21.6568542 3,20 L3,11.7029695 L0.50017494,11.7029695 C0.224032565,11.7029695 0.000174939623,11.4791119 0.000174939623,11.2029695 C0.000174939623,11.0451424 0.0746926086,10.8965806 0.201195145,10.8022064 Z"/><path fill="#F03226" d="M12,13.5642398 C12.3141191,13.2182312 12.7737032,13 13.2857143,13 C14.2324881,13 15,13.8333333 15,14.6666667 C15,15.0494874 15,15.5 14.1428571,16.3333333 C13.8295885,16.6379001 13.1153028,17.1934557 12,18 C10.8846972,17.1934557 10.1704115,16.6379001 9.85714286,16.3333333 C9,15.5 9,15.0494874 9,14.6666667 C9,13.8333333 9.76751186,13 10.7142857,13 C11.2262968,13 11.6858809,13.2182312 12,13.5642398 Z"/></g></svg>

<svg xmlns="http://www.w3.org/2000/svg" width="24" height="24" viewBox="0 0 24 24"><g fill="none"><path d="M0 0h24v24H0z"/><path fill="#F03226" d="M5 9.717V20a1 1 0 0 0 1 1h12a1 1 0 0 0 1-1V9.717l-7-5.222-7 5.222zM.201 10.802L12 2l11.799 8.802a.5.5 0 0 1-.3.901H21V20a3 3 0 0 1-3 3H6a3 3 0 0 1-3-3v-8.297H.5a.5.5 0 0 1-.299-.9z"/><path fill="#F03226" d="M12 13.564A1.731 1.731 0 0 1 13.286 13c.946 0 1.714.833 1.714 1.667 0 .382 0 .833-.857 1.666-.313.305-1.028.86-2.143 1.667-1.115-.807-1.83-1.362-2.143-1.667C9 15.5 9 15.05 9 14.667 9 13.833 9.768 13 10.714 13c.512 0 .972.218 1.286.564z"/></g></svg>
